docs/local/img/sprites/fb.svg

<svg width="11" height="19" viewBox="0 0 11 19" xmlns="http://www.w3.org/2000/svg">
<path d="M3.25772 10.6857C3.18705 10.6857 1.63216 10.6857 0.925399 10.6857C0.548458 10.6857 0.430664 10.5484 0.430664 10.2053C0.430664 9.29029 0.430664 8.35243 0.430664 7.43744C0.430664 7.07144 0.572017 6.95707 0.925399 6.95707H3.25772C3.25772 6.88844 3.25772 5.56171 3.25772 4.94409C3.25772 4.0291 3.42263 3.15986 3.89381 2.35924C4.38854 1.53575 5.09531 0.986759 5.99054 0.666512C6.57951 0.460639 7.16848 0.369141 7.80457 0.369141H10.1133C10.4432 0.369141 10.5845 0.506389 10.5845 0.826636V3.43436C10.5845 3.7546 10.4432 3.89185 10.1133 3.89185C9.47725 3.89185 8.84116 3.89185 8.20507 3.91473C7.56898 3.91473 7.23916 4.2121 7.23916 4.85259C7.2156 5.53883 7.23916 6.2022 7.23916 6.91132H9.97198C10.3489 6.91132 10.4903 7.04857 10.4903 7.41456V10.1824C10.4903 10.5484 10.3725 10.6628 9.97198 10.6628C9.12386 10.6628 7.30984 10.6628 7.23916 10.6628V18.1199C7.23916 18.5088 7.12137 18.6461 6.69731 18.6461C5.70784 18.6461 4.74193 18.6461 3.75246 18.6461C3.39907 18.6461 3.25772 18.5088 3.25772 18.1657C3.25772 15.7638 3.25772 10.7543 3.25772 10.6857Z"/>
</svg>

<svg width="11" height="19" viewBox="0 0 11 19" xmlns="http://www.w3.org/2000/svg"><path d="M3.258 10.686H.925c-.377 0-.494-.138-.494-.48v-2.77c0-.366.141-.48.494-.48h2.333V4.944c0-.915.165-1.784.636-2.585C4.389 1.536 5.095.987 5.99.667A5.383 5.383 0 017.805.369h2.308c.33 0 .472.137.472.458v2.607c0 .32-.142.458-.472.458-.636 0-1.272 0-1.908.023-.636 0-.966.297-.966.938-.023.686 0 1.35 0 2.058h2.733c.377 0 .518.138.518.504v2.767c0 .366-.117.48-.518.48H7.239v7.458c0 .389-.118.526-.542.526H3.752c-.353 0-.494-.137-.494-.48v-7.48z"/></svg>
